symbols-de/shields/motorway_6x2.svg

<?xml version="1.0" encoding="UTF-8" standalone="no"?>
<svg
   xmlns:dc="http://purl.org/dc/elements/1.1/"
   xmlns:cc="http://creativecommons.org/ns#"
   xmlns:rdf="http://www.w3.org/1999/02/22-rdf-syntax-ns#"
   xmlns:svg="http://www.w3.org/2000/svg"
   xmlns="http://www.w3.org/2000/svg"
   xmlns:sodipodi="http://sodipodi.sourceforge.net/DTD/sodipodi-0.dtd"
   xmlns:inkscape="http://www.inkscape.org/namespaces/inkscape"
   width="100%"
   height="100%"
   viewBox="0 0 45.0 24.0"
   id="svg2"
   version="1.1"
   inkscape:version="0.91 r13725"
   sodipodi:docname="autobahn_6x2.svg">
  <metadata
     id="metadata9">
    <rdf:RDF>
      <cc:Work
         rdf:about="">
        <dc:format>image/svg+xml</dc:format>
        <dc:type
           rdf:resource="http://purl.org/dc/dcmitype/StillImage" />
        <dc:title></dc:title>
      </cc:Work>
    </rdf:RDF>
  </metadata>
  <defs
     id="defs7" />
  <sodipodi:namedview
     pagecolor="#ffffff"
     bordercolor="#666666"
     borderopacity="1"
     objecttolerance="10"
     gridtolerance="10"
     guidetolerance="10"
     inkscape:pageopacity="0"
     inkscape:pageshadow="2"
     inkscape:window-width="987"
     inkscape:window-height="684"
     id="namedview5"
     showgrid="false"
     inkscape:zoom="7.8444444"
     inkscape:cx="22.5"
     inkscape:cy="12"
     inkscape:window-x="316"
     inkscape:window-y="263"
     inkscape:window-maximized="0"
     inkscape:current-layer="svg2" />
  <path
     style="fill:#365eaf;fill-opacity:1;stroke:#0528a2;stroke-width:1;stroke-miterlimit:4;stroke-dasharray:none;stroke-opacity:1"
     d="m 22.5,0.4999994 c -0.31541,0 -0.472656,0.0033 -0.472656,0.01172 L 1.210637,2.2812514 C 0.73751791,2.3661014 0.5,2.4943634 0.5,2.6640634 c 0,6.223959 0,12.4479176 0,18.6718756 0,0.1697 0.23751765,0.297965 0.710637,0.382812 l 20.816707,1.769529 c 0,0.0085 0.157249,0.01172 0.472656,0.01172 0.315413,0 0.472657,-0.0033 0.472657,-0.01172 L 43.789363,21.718749 C 44.262483,21.633899 44.5,21.505636 44.5,21.335937 c 0,-6.223959 0,-12.4479166 0,-18.6718756 0,-0.1697 -0.237517,-0.297965 -0.710637,-0.382812 L 22.972657,0.5117174 c 0,-0.0085 -0.15725,-0.01172 -0.472657,-0.01172 z"
     id="path6"
     inkscape:connector-curvature="0"
     sodipodi:nodetypes="sccccccsccccccs" />
</svg>

<?xml version="1.0" encoding="UTF-8"?>
<svg xmlns="http://www.w3.org/2000/svg" xmlns:xlink="http://www.w3.org/1999/xlink" width="47pt" height="30pt" viewBox="0 0 47 30" version="1.1">
<g id="surface1">
<path style="fill-rule:nonzero;fill:rgb(21.176471%,36.862745%,68.627451%);fill-opacity:1;stroke-width:1;stroke-linecap:butt;stroke-linejoin:miter;stroke:rgb(1.960784%,15.686275%,63.529412%);stroke-opacity:1;stroke-miterlimit:4;" d="M 22.5 0.5 C 22.185838 0.5 22.028757 0.503125 22.028757 0.5125 L 1.211769 2.28125 C 0.736785 2.365625 0.501164 2.49375 0.501164 2.665625 C 0.501164 8.8875 0.501164 15.1125 0.501164 21.3375 C 0.501164 21.50625 0.736785 21.634375 1.211769 21.71875 L 22.028757 23.4875 C 22.028757 23.496875 22.185838 23.5 22.5 23.5 C 22.814162 23.5 22.971243 23.496875 22.971243 23.4875 L 43.788231 21.71875 C 44.263215 21.634375 44.498836 21.50625 44.498836 21.334375 C 44.498836 15.1125 44.498836 8.8875 44.498836 2.6625 C 44.498836 2.49375 44.263215 2.365625 43.788231 2.28125 L 22.971243 0.5125 C 22.971243 0.503125 22.814162 0.5 22.5 0.5 Z M 22.5 0.5 " transform="matrix(1.044444,0,0,1.25,0,0)"/>
</g>
</svg>
